picto/pedal-bin-framed.svg

<svg class="color-immutable" width="30" height="30" viewBox="0 0 30 30" fill="none" xmlns="http://www.w3.org/2000/svg"><path d="M29.9999 0H0V29.9999H29.9999V0Z" fill="#2D327D" stroke="#2D327D" stroke-miterlimit="10"/><path d="M25.4999 2.99999C26.3249 2.99999 26.9999 3.67499 26.9999 4.49999V25.4999C26.9999 26.3249 26.3249 26.9999 25.4999 26.9999H4.49999C3.67499 26.9999 2.99999 26.3249 2.99999 25.4999V4.49999C2.99999 3.67499 3.67499 2.99999 4.49999 2.99999H25.4999ZM25.4999 2.62499H4.49999C3.46612 2.62499 2.62499 3.46612 2.62499 4.49999V25.4999C2.62499 26.5338 3.46612 27.3749 4.49999 27.3749H25.4999C26.5338 27.3749 27.3749 26.5338 27.3749 25.4999V4.49999C27.3749 3.46612 26.5338 2.62499 25.4999 2.62499Z" fill="white"/><path d="M11.3203 5.99999H5.99999V18.1152L14.5922 14.9873L11.3203 5.99999Z" fill="white"/><path d="M23.2503 17.7819L23.0423 17.21C22.8045 16.5583 22.1847 16.1256 21.4917 16.1256H13.4401L5.99999 18.8328V20.0316C5.99999 20.3817 6.06119 20.7289 6.18111 21.0576L7.12499 23.6515L12.552 21.6759L12.0327 20.2497H16.4706L23.2503 17.7819Z" fill="white"/><path d="M23.6246 21H19.1244C18.9173 21 18.75 21.1681 18.75 21.3752V22.1257C18.75 22.3329 18.9173 22.5 19.1244 22.5H20.2494V24H22.4995V22.5H23.6245C23.8317 22.5 24 22.3329 24 22.1257V21.3752C24 21.1681 23.8317 21 23.6246 21Z" fill="white"/></svg>

<svg class="color-immutable" width="30" height="30" viewBox="0 0 30 30" fill="none" xmlns="http://www.w3.org/2000/svg"><g clip-path="url(#a)"><path d="M30 0H0v30h30V0Z" fill="#2D327D" stroke="#2D327D" stroke-miterlimit="10"/><path d="M25.5 3c.825 0 1.5.675 1.5 1.5v21c0 .825-.675 1.5-1.5 1.5h-21c-.825 0-1.5-.675-1.5-1.5v-21C3 3.675 3.675 3 4.5 3h21Zm0-.375h-21A1.877 1.877 0 0 0 2.625 4.5v21c0 1.034.841 1.875 1.875 1.875h21a1.877 1.877 0 0 0 1.875-1.875v-21A1.877 1.877 0 0 0 25.5 2.625Z" fill="#fff"/><path d="M11.32 6H6v12.115l8.592-3.128L11.32 6ZM23.25 17.782l-.208-.572a1.65 1.65 0 0 0-1.55-1.084H13.44L6 18.833v1.199c0 .35.061.697.181 1.026l.944 2.593 5.427-1.975-.52-1.426h4.439l6.78-2.468ZM23.625 21h-4.5a.375.375 0 0 0-.375.375v.75c0 .208.167.375.374.375h1.125V24h2.25v-1.5h1.126a.375.375 0 0 0 .375-.374v-.75a.376.376 0 0 0-.375-.376Z" fill="#fff"/></g><defs><clipPath id="a"><path fill="#fff" d="M0 0h30v30H0z"/></clipPath></defs></svg>
